icons/scribd.svg

<?xml version="1.0" encoding="UTF-8"?>
<svg width="512px" height="114px" viewBox="0 0 512 114" version="1.1" xmlns="http://www.w3.org/2000/svg" xmlns:xlink="http://www.w3.org/1999/xlink" preserveAspectRatio="xMidYMid">
    <g transform="translate(0.000000, -0.003474)">
        <path d="M168.843136,53.2500308 C155.737736,50.4466148 152.7064,47.3013188 152.7064,41.6033188 C152.7064,35.9053188 157.60668,31.9167188 165.35596,31.9167188 C171.667831,31.9244051 177.763798,34.2154524 182.518336,38.3668548 L186.43856,33.1930708 C180.608086,28.2679497 173.16756,25.6633598 165.538296,25.8768388 C154.142296,25.8768388 145.98276,32.7144388 145.98276,42.1959108 C145.98276,51.6773828 152.273352,56.4864948 165.948552,59.4494548 C178.438568,62.0933268 181.42432,65.2386228 181.42432,70.8454548 C181.42432,76.8853348 176.159368,81.0562708 168.159376,81.0562708 C160.463213,81.1557009 153.057846,78.1195005 147.646576,72.6460228 L143.5896,77.5007188 C150.144567,83.7297048 158.866549,87.1629123 167.908664,87.0733588 C179.71492,87.0733588 188.216336,80.4408868 188.216336,70.1616948 C188.216336,60.9765188 182.085288,56.1446148 168.843136,53.2500308 Z M236.079536,81.0334788 C222.996928,81.0334788 213.036824,70.2300708 213.036824,56.3953268 C213.036824,42.5605828 222.90576,31.9167188 236.079536,31.9167188 C243.163814,31.9626906 249.919258,34.9120185 254.768976,40.0762548 L259.327376,35.1531828 C253.266653,28.8815917 244.842735,25.4557547 236.12512,25.7172948 C218.620864,25.7172948 206.03968,39.5748308 206.03968,56.5776628 C206.03968,73.5804948 218.8032,87.2329028 235.919992,87.2329028 C245.037748,87.442903 253.784656,83.6239479 259.8288,76.7941668 L255.2704,72.4636868 C249.595192,77.8881828 244.239072,81.0334788 236.079536,81.0334788 Z M305.116504,26.7429348 C318.221904,26.7429348 326.632152,33.7856628 326.632152,44.4979028 C326.632152,54.4352148 319.840136,60.2243828 310.541,61.8881988 L310.541,61.8881988 L328.7746,86.2072628 L320.523896,86.2072628 L303.270352,63.0961748 L286.26752,63.0961748 L286.26752,86.2300548 L279.54388,86.2300548 L279.54388,26.7429348 Z M304.570037,56.9878754 L304.50112,56.9879188 C312.354057,56.9879188 318.227404,53.4842208 319.556263,47.4444215 L319.578144,47.3383506 C319.76558,46.5085772 319.862928,45.6362539 319.862928,44.7258228 C319.862928,37.3412148 314.233304,32.9195668 304.637872,32.9195668 L304.637872,32.9195668 L286.26752,32.9195668 L286.26752,56.9879188 L304.570037,56.9878754 L304.570037,56.9878754 Z M353.73184,26.7201428 L360.45548,26.7201428 L360.45548,86.2072628 L353.73184,86.2072628 L353.73184,26.7201428 Z M410.757424,26.7201428 C422.472512,26.7201428 430.130624,32.4865188 430.130624,41.6033188 C430.274242,47.765608 426.481006,53.3363512 420.694736,55.4608548 C427.737464,57.5805108 433.435464,61.5463188 433.435464,69.8881908 C433.435464,80.1673828 424.865672,86.2072628 411.85144,86.2072628 L411.85144,86.2072628 L385.41272,86.2072628 L385.41272,26.7201428 Z M410.848592,59.2671188 L392.0224,59.2671188 L392.0224,80.2585508 L411.988192,80.2585508 C419.783717,80.2585508 424.92961,77.3422902 426.257436,72.2934763 L426.275386,72.2316212 C426.503369,71.3911176 426.620656,70.4943258 426.620656,69.5463108 C426.620656,68.5160827 426.485536,67.5553932 426.217345,66.6678929 C424.823418,61.8121954 419.622453,59.2671188 410.848592,59.2671188 Z M410.256,32.7600228 L392.0224,32.7600228 L392.0224,53.2728228 L409.617824,53.2728228 C410.603798,53.2700532 411.552752,53.2134357 412.459124,53.1034611 C419.048893,52.3574912 423.429776,48.783276 423.429776,42.5377908 C423.429776,36.5890788 418.757416,32.7600228 410.256,32.7600228 L410.256,32.7600228 Z M480.386984,26.7201428 C499.1448,26.7201428 511.999488,39.5520388 511.999488,56.3725348 C511.999488,73.1930308 499.076424,86.2072628 480.386984,86.2072628 L480.386984,86.2072628 L459.737432,86.2072628 L459.737432,26.7201428 Z M480.386984,32.9195668 L466.43828,32.9195668 L466.43828,80.0078388 L480.386984,80.0078388 L480.836627,80.0047895 C495.620653,79.8037706 505.025136,69.6871653 505.025136,56.5548708 C505.025136,43.2899268 495.429704,32.9195668 480.386984,32.9195668 L480.386984,32.9195668 Z" fill="#00293F"></path>
        <path d="M59.03128,55.4380628 C62.301702,52.1471241 66.8198168,50.4061991 71.45292,50.6517428 C77.3211112,50.4591276 82.9461079,53.002165 86.677976,57.5349268 C90.5374213,62.1237161 92.467144,68.5054761 92.467144,76.6802068 C92.467144,87.9546494 88.9191893,96.7903481 81.82328,103.187303 C74.3781975,109.555976 64.9935285,113.211819 55.202224,113.557663 C53.401656,113.808838 51.555504,113.808838 49.640976,113.808838 C32.7121461,113.870538 16.3569082,107.677463 3.715096,96.4180788 L3.715096,96.4180788 L0,93.0904468 L14.609672,75.7913188 L23.179464,82.4009988 L15.065512,91.8824708 C25.0943133,99.3281134 37.2644528,103.326188 49.754936,103.278471 C64.660904,103.278471 74.98568,97.6260548 78.997072,87.7799108 C79.2254248,86.7779476 79.3401088,85.7534373 79.338952,84.7257828 C79.338952,81.8084068 78.130976,80.3497188 75.715024,80.3497188 C74.6112258,80.4487107 73.51967,80.6548087 72.455768,80.9651028 C71.1162603,81.2728364 69.7497932,81.4484159 68.376,81.4893188 C64.8223057,81.4185138 61.4301864,79.9915405 58.894528,77.5007188 C55.9182279,74.772274 54.2997981,70.8680206 54.47288,66.8340628 C54.4119199,62.5795225 56.0529708,58.4768953 59.03128,55.4380628 Z M44.489984,0.00791877438 C59.1890671,-0.225371522 73.5046882,4.7024282 84.945784,13.9338308 L84.945784,13.9338308 L88.866008,17.0107508 L76.69508,34.3782548 L67.715032,28.4523348 L74.18796,19.1531988 C65.3994481,13.3738205 55.0755669,10.3719535 44.55836,10.5378228 C39.3497334,10.4520955 34.1826749,11.4777372 29.40168,13.5463668 C27.8705862,14.3322722 26.4002246,15.2312498 25.002824,16.2358228 C20.1101413,19.7609854 17.6638,23.9775054 17.6638,28.8853828 C17.6638,31.8027588 18.871776,33.2614468 21.287728,33.2614468 C22.3915064,33.1623122 23.4830485,32.9562168 24.546984,32.6460628 C25.8865945,32.3389046 27.2530048,32.1633323 28.626752,32.1218468 C32.1282567,32.196825 35.4729468,33.5884113 37.994264,36.0192788 C40.9809444,38.7675424 42.5925352,42.700492 42.39312,46.7543108 C42.4540801,51.008851 40.8130292,55.1114782 37.83472,58.1503108 C34.564298,61.4412495 30.0461832,63.1821744 25.41308,62.9366308 C19.5526015,63.1403581 13.9289778,60.6147786 10.188024,56.0990308 C6.313384,51.5178388 4.239312,45.0449108 4.21652,36.8625828 L4.21652,36.8625828 L4.21652,35.3811028 C4.21652,14.5492148 20.786304,0.00791877438 44.489984,0.00791877438 Z" fill="#1E7B85"></path>
    </g>
</svg>

<svg xmlns="http://www.w3.org/2000/svg" viewBox="0 0 511.999 113.809">
  <path fill="#00293f" d="M168.843 53.25c-13.105-2.803-16.137-5.949-16.137-11.647s4.9-9.686 12.65-9.686a26.143 26.143 0 0 1 17.162 6.45l3.92-5.174a31.043 31.043 0 0 0-20.9-7.316c-11.396 0-19.555 6.837-19.555 16.319 0 9.481 6.29 14.29 19.966 17.253 12.49 2.644 15.475 5.79 15.475 11.396 0 6.04-5.265 10.211-13.265 10.211a28.33 28.33 0 0 1-20.512-8.41l-4.057 4.855a34.803 34.803 0 0 0 24.319 9.572c11.806 0 20.307-6.632 20.307-16.911 0-9.185-6.13-14.017-19.373-16.912zm67.237 27.783c-13.083 0-23.043-10.803-23.043-24.638 0-13.834 9.869-24.478 23.043-24.478a25.869 25.869 0 0 1 18.689 8.16l4.558-4.924a30.974 30.974 0 0 0-23.202-9.436c-17.504 0-30.085 13.858-30.085 30.86 0 17.003 12.763 30.656 29.88 30.656a30.974 30.974 0 0 0 23.909-10.439l-4.559-4.33c-5.675 5.424-11.03 8.57-19.19 8.57zm69.036-54.29c13.106 0 21.516 7.043 21.516 17.755 0 9.937-6.792 15.726-16.091 17.39l18.234 24.32h-8.251L303.27 63.095h-17.002V86.23h-6.724V26.743zm-.546 30.245h-.069c7.853 0 13.726-3.504 15.055-9.544l.022-.106c.188-.83.285-1.702.285-2.612 0-7.385-5.63-11.806-15.225-11.806h-18.37v24.068h18.302zm49.162-30.268h6.723v59.487h-6.723zm57.025 0c11.716 0 19.374 5.767 19.374 14.883a14.405 14.405 0 0 1-9.436 13.858c7.042 2.12 12.74 6.085 12.74 14.427 0 10.28-8.57 16.32-21.584 16.32h-26.438V26.72zm.092 32.547h-18.827V80.26h19.966c7.796 0 12.942-2.917 14.27-7.966l.017-.061c.228-.84.346-1.738.346-2.686 0-1.03-.135-1.99-.404-2.878-1.394-4.856-6.594-7.4-15.368-7.4zm-.593-26.507h-18.234v20.513h17.596c.986-.003 1.935-.06 2.841-.17 6.59-.746 10.97-4.32 10.97-10.565 0-5.949-4.672-9.778-13.173-9.778zm70.131-6.04c18.758 0 31.612 12.832 31.612 29.653 0 16.82-12.923 29.834-31.612 29.834h-20.65V26.72zm0 6.2h-13.949v47.088h13.949l.45-.003c14.784-.201 24.188-10.318 24.188-23.45 0-13.265-9.595-23.635-24.638-23.635z"/>
  <path fill="#1e7b85" d="M59.031 55.438a16.296 16.296 0 0 1 12.422-4.786 18.917 18.917 0 0 1 15.225 6.883c3.86 4.589 5.79 10.97 5.79 19.145 0 11.275-3.549 20.11-10.645 26.507a43.305 43.305 0 0 1-26.62 10.37c-1.801.252-3.647.252-5.562.252a68.675 68.675 0 0 1-45.926-17.39L0 93.09l14.61-17.299 8.57 6.61-8.114 9.481a57.823 57.823 0 0 0 34.689 11.396c14.906 0 25.23-5.652 29.242-15.498.228-1.002.343-2.027.342-3.054 0-2.918-1.208-4.376-3.624-4.376a17.094 17.094 0 0 0-3.26.615c-1.339.308-2.705.483-4.079.524a13.926 13.926 0 0 1-9.481-3.988 13.675 13.675 0 0 1-4.422-10.667 15.954 15.954 0 0 1 4.558-11.396zM44.49.008a62.838 62.838 0 0 1 40.456 13.926l3.92 3.077-12.17 17.367-8.981-5.926 6.473-9.299a52.422 52.422 0 0 0-29.63-8.615 36.65 36.65 0 0 0-15.156 3.008 34.621 34.621 0 0 0-4.4 2.69c-4.892 3.525-7.338 7.742-7.338 12.65 0 2.917 1.208 4.375 3.624 4.375 1.104-.099 2.195-.305 3.259-.615a21.105 21.105 0 0 1 4.08-.524 13.926 13.926 0 0 1 9.367 3.897 13.675 13.675 0 0 1 4.4 10.735 15.954 15.954 0 0 1-4.56 11.396 16.296 16.296 0 0 1-12.42 4.787 18.917 18.917 0 0 1-15.226-6.838c-3.875-4.581-5.949-11.054-5.971-19.236V35.38C4.217 14.55 20.787.008 44.49.008z"/>
</svg>
